icon-svg/acura.svg

<svg xmlns="http://www.w3.org/2000/svg" viewBox="0 0 24 24"><path fill="#44739e" d="M3.737 18.313 2 21.205h.832l.259-.422h1.776l-.32-.559H3.411l.678-1.255.117.01 1.23 2.226h.8l-1.615-2.892Zm2.606.86v1.182a.85.85 0 0 0 .852.85h2.378v-.556H7.289a.25.25 0 0 1-.25-.246v-1.275a.25.25 0 0 1 .247-.251H9.57v-.557H7.2a.854.854 0 0 0-.857.853m6.42 1.257a.254.254 0 0 1-.251.251h-1.5a.25.25 0 0 1-.248-.251v-2.112h-.7v2.037a.847.847 0 0 0 .852.85h1.689a.854.854 0 0 0 .855-.85v-2.037h-.7v2.112Zm1.383-3.6c3.439-.549 5.382-2.646 5.382-6.944s-1.943-6.4-5.382-6.947a13 13 0 0 0-2.046-.146 13 13 0 0 0-2.053.151c-3.436.549-5.381 2.646-5.381 6.947s1.945 6.4 5.381 6.944a13 13 0 0 0 2.053.149 13 13 0 0 0 2.046-.149Zm0-13.351c2.43.524 4.42 2.183 4.42 6.407 0 3.21-1.15 4.937-2.77 5.811l-.914-6.144-.736-2.072-1.488-4.182a9 9 0 0 1 1.488.189Zm-2.332-.2h.561l.082 5.12h-.725ZM5.622 9.891c0-4.224 1.99-5.883 4.42-6.407a9 9 0 0 1 1.488-.185l-1.488 4.187-.735 2.072-.914 6.141c-1.62-.874-2.771-2.6-2.771-5.811Zm4.42 6.405a6.5 6.5 0 0 1-1.491-.509l1.491-3.094 1.615-3.351h.875l1.614 3.351 1.491 3.094a6.5 6.5 0 0 1-1.491.509 10.4 10.4 0 0 1-4.1 0Zm9.926 2.683 1.232 2.226h.8l-1.615-2.892H19.5l-1.737 2.892h.833l.258-.422h1.779l-.321-.559h-1.139l.678-1.255Zm-3.141-.661H14.01v2.889h.7v-2.33h1.932a.21.21 0 0 1 .207.2v.408a.21.21 0 0 1-.207.2h-1.683l.151.556h1.528a.207.207 0 0 1 .207.2v.753h.65v-.695a.56.56 0 0 0-.357-.525.5.5 0 0 0 .4-.437v-.5a.716.716 0 0 0-.713-.713Z"/></svg>

<?xml version="1.0" encoding="UTF-8"?>
<svg width="24px" fill="#44739e" height="24px" viewBox="0 0 24 24" version="1.1" xmlns="http://www.w3.org/2000/svg" xmlns:xlink="http://www.w3.org/1999/xlink">
            <path d="M 3.737,18.314 2,21.206 H 2.832 L 3.091,20.784 H 4.867 L 4.547,20.225 H 3.411 l 0.678,-1.255 0.117,0.01 1.23,2.226 h 0.8 L 4.621,18.314 Z m 2.606,0.86 v 1.182 a 0.848,0.848 0 0 0 0.852,0.85 H 9.573 V 20.65 H 7.289 a 0.248,0.248 0 0 1 -0.25,-0.246 v -1.275 a 0.249,0.249 0 0 1 0.247,-0.251 v 0 H 9.57 V 18.321 H 7.2 a 0.854,0.854 0 0 0 -0.857,0.853 z m 6.42,1.257 a 0.254,0.254 0 0 1 -0.251,0.251 h -1.5 a 0.251,0.251 0 0 1 -0.248,-0.251 v -2.112 h -0.7 v 2.037 a 0.847,0.847 0 0 0 0.852,0.85 h 1.689 a 0.854,0.854 0 0 0 0.855,-0.85 v -2.037 h -0.7 v 2.112 z m 1.383,-3.6 c 3.439,-0.549 5.382,-2.646 5.382,-6.944 0,-4.298 -1.943,-6.4 -5.382,-6.947 A 13.06,13.06 0 0 0 12.1,2.794 13.086,13.086 0 0 0 10.047,2.945 C 6.611,3.494 4.666,5.591 4.666,9.892 c 0,4.301 1.945,6.4 5.381,6.944 a 12.975,12.975 0 0 0 2.053,0.149 12.949,12.949 0 0 0 2.046,-0.149 z m 0,-13.351 c 2.43,0.524 4.42,2.183 4.42,6.407 0,3.21 -1.15,4.937 -2.77,5.811 L 14.882,9.554 14.146,7.482 12.658,3.3 a 9.118,9.118 0 0 1 1.488,0.189 z m -2.332,-0.2 c 0.094,0 0.186,0 0.281,0 0.095,0 0.186,0 0.28,0 L 12.457,8.4 H 11.732 L 11.814,3.279 Z M 5.622,9.892 c 0,-4.224 1.99,-5.883 4.42,-6.407 A 9.146,9.146 0 0 1 11.53,3.3 L 10.042,7.487 9.307,9.559 8.393,15.7 C 6.773,14.826 5.622,13.1 5.622,9.889 Z m 4.42,6.405 A 6.5,6.5 0 0 1 8.551,15.788 l 1.491,-3.094 1.615,-3.351 h 0.875 l 1.614,3.351 1.491,3.094 a 6.463,6.463 0 0 1 -1.491,0.509 10.422,10.422 0 0 1 -4.1,0 z m 9.926,2.683 1.232,2.226 H 22 L 20.385,18.314 H 19.5 l -1.737,2.892 h 0.833 l 0.258,-0.422 h 1.779 L 20.312,20.225 H 19.173 L 19.851,18.97 Z M 16.827,18.319 H 14.146 14.01 v 2.889 h 0.7 v -2.33 h 1.932 a 0.209,0.209 0 0 1 0.207,0.2 v 0.408 a 0.209,0.209 0 0 1 -0.207,0.2 h -1.683 l 0.151,0.556 h 1.528 a 0.207,0.207 0 0 1 0.207,0.2 v 0.753 h 0.65 V 20.5 a 0.561,0.561 0 0 0 -0.357,-0.525 0.5,0.5 0 0 0 0.4,-0.437 v -0.5 a 0.716,0.716 0 0 0 -0.713,-0.713 z"/>

</svg>
